X: 100
T:Gan Ainm (from Sona)
M:C|
L:1/8
R:reel
D:Sona: Launching the Boat
Z:Devin McCabe
K:C
C3 D ~E3 G|cded cAGc|A~G3 EGca|gecd ed d2|
!G,A,CD ~E3 G|cded cAAG|A~G3 EGcA|1GEFD EFED|2GEFD EC C2|
!|:e ~g3 gece|f2 ed cAAc|G3 A cBcd|egag ed d2|
!e ~g3 gece|fAed cAGc|e ~g3 eaa^f|1gedB cBcd:|2gedc B3 d||
!c3 g acgc-|~c2 gc BcdB|c2 gc acgc|GA B/2c/2d edcB|
!c3 g acgc-|~c2 gc Bcdg|e ~g3 ~a3 ^f|gedB cAGE||
